packages/dnb-eufemia/assets/icons/file_ppt_medium.svg

<svg width="24" height="24" viewBox="0 0 24 24" fill="none" xmlns="http://www.w3.org/2000/svg">
<path d="M13 23H2.5C1.94772 23 1.5 22.5523 1.5 22V2C1.5 1.44772 1.94772 1 2.5 1H12.5362C12.8304 1 13.1096 1.12951 13.2996 1.35406L18.2634 7.22036C18.4162 7.40092 18.5 7.62979 18.5 7.86631V9" stroke="black" stroke-width="1.5" stroke-linecap="round" stroke-linejoin="round"/>
<path d="M8.71586 12H6.20586V19H7.70586V16.3H8.71586C10.2259 16.3 11.1059 15.51 11.1059 14.15C11.1059 12.79 10.2259 12 8.71586 12ZM8.47586 15.1H7.70586V13.2H8.47586C9.23586 13.2 9.58586 13.5 9.58586 14.15C9.58586 14.8 9.23586 15.1 8.47586 15.1Z" fill="black"/>
<path d="M14.912 12H12.4019V19H13.902V16.3H14.912C16.422 16.3 17.3019 15.51 17.3019 14.15C17.3019 12.79 16.422 12 14.912 12ZM14.6719 15.1H13.902V13.2H14.6719C15.4319 13.2 15.7819 13.5 15.7819 14.15C15.7819 14.8 15.4319 15.1 14.6719 15.1Z" fill="black"/>
<path d="M23.648 12H18.348V13.2H20.248V19H21.748V13.2H23.648V12Z" fill="black"/>
</svg>

<svg width="24" height="24" viewBox="0 0 24 24" fill="none" xmlns="http://www.w3.org/2000/svg"><path d="M13 23H2.5a1 1 0 0 1-1-1V2a1 1 0 0 1 1-1h10.036a1 1 0 0 1 .764.354l4.963 5.866a1 1 0 0 1 .237.646V9" stroke="#000" stroke-width="1.5" stroke-linecap="round" stroke-linejoin="round"/><path d="M8.716 12h-2.51v7h1.5v-2.7h1.01c1.51 0 2.39-.79 2.39-2.15 0-1.36-.88-2.15-2.39-2.15Zm-.24 3.1h-.77v-1.9h.77c.76 0 1.11.3 1.11.95 0 .65-.35.95-1.11.95Zm6.436-3.1h-2.51v7h1.5v-2.7h1.01c1.51 0 2.39-.79 2.39-2.15 0-1.36-.88-2.15-2.39-2.15Zm-.24 3.1h-.77v-1.9h.77c.76 0 1.11.3 1.11.95 0 .65-.35.95-1.11.95Zm8.976-3.1h-5.3v1.2h1.9V19h1.5v-5.8h1.9V12Z" fill="#000"/></svg>
